assets/fc/fc-entering-heaven-alive.svg

<svg xmlns="http://www.w3.org/2000/svg" width="100%" height="100%" viewBox="0 0 48 48"><path fill="#039BE5" d="M17 29h14v2H17zM13 33h22v2H13zM9 37h30v2H9zM5 41h38v2H5z"/><path fill="#81D4FA" d="M35 13c-.4 0-.8 0-1.2.1C32.9 8.5 28.9 5 24 5c-4.1 0-7.6 2.5-9.2 6H14c-4.4 0-8 3.6-8 8s3.6 8 8 8h21c3.9 0 7-3.1 7-7s-3.1-7-7-7z"/><path fill="#039BE5" d="M28 21c0-2.2-1.8-4-4-4s-4 1.8-4 4v6h8v-6z"/></svg>

<svg xmlns="http://www.w3.org/2000/svg" width="100%" height="100%" viewBox="0 0 48 48"><path fill="#039BE5" d="M17 29H31V31H17zM13 33H35V35H13zM9 37H39V39H9zM5 41H43V43H5z"/><path fill="#81D4FA" d="M35,13c-0.4,0-0.8,0-1.2,0.1C32.9,8.5,28.9,5,24,5c-4.1,0-7.6,2.5-9.2,6c-0.3,0-0.5,0-0.8,0 c-4.4,0-8,3.6-8,8s3.6,8,8,8c2.4,0,18.5,0,21,0c3.9,0,7-3.1,7-7C42,16.1,38.9,13,35,13z"/><path fill="#039BE5" d="M28,21c0-2.2-1.8-4-4-4s-4,1.8-4,4c0,0.5,0,6,0,6h8C28,27,28,21.5,28,21z"/></svg>
